src/assets/outline/SendSquare.svg

<svg width="24" height="24" viewBox="0 0 24 24"  xmlns="http://www.w3.org/2000/svg">
<path d="M15 22.75H9C3.57 22.75 1.25 20.43 1.25 15V9C1.25 3.57 3.57 1.25 9 1.25H15C20.43 1.25 22.75 3.57 22.75 9V15C22.75 20.43 20.43 22.75 15 22.75ZM9 2.75C4.39 2.75 2.75 4.39 2.75 9V15C2.75 19.61 4.39 21.25 9 21.25H15C19.61 21.25 21.25 19.61 21.25 15V9C21.25 4.39 19.61 2.75 15 2.75H9Z" />
<path d="M14.9999 10.26C14.8099 10.26 14.6199 10.1899 14.4699 10.0399L11.9999 7.56996L9.52994 10.0399C9.23994 10.3299 8.75994 10.3299 8.46994 10.0399C8.17994 9.74995 8.17994 9.26995 8.46994 8.97995L11.4699 5.97995C11.7599 5.68995 12.2399 5.68995 12.5299 5.97995L15.5299 8.97995C15.8199 9.26995 15.8199 9.74995 15.5299 10.0399C15.3799 10.1899 15.1899 10.26 14.9999 10.26Z" />
<path d="M12 15.26C11.59 15.26 11.25 14.92 11.25 14.51V6.51001C11.25 6.10001 11.59 5.76001 12 5.76001C12.41 5.76001 12.75 6.10001 12.75 6.51001V14.51C12.75 14.93 12.41 15.26 12 15.26Z" />
<path d="M12 18.2302C9.88995 18.2302 7.76995 17.8902 5.75995 17.2202C5.36995 17.0902 5.15995 16.6602 5.28995 16.2702C5.41995 15.8802 5.84996 15.6602 6.23996 15.8002C9.95996 17.0402 14.05 17.0402 17.77 15.8002C18.16 15.6702 18.59 15.8802 18.72 16.2702C18.85 16.6602 18.64 17.0902 18.25 17.2202C16.23 17.9002 14.11 18.2302 12 18.2302Z" />
</svg>

<?xml version="1.0" encoding="UTF-8"?>
<svg width="24" height="24" viewBox="0 0 24 24" xmlns="http://www.w3.org/2000/svg">
 <path d="m15 22.75h-6c-5.43 0-7.75-2.32-7.75-7.75v-6c0-5.43 2.32-7.75 7.75-7.75h6c5.43 0 7.75 2.32 7.75 7.75v6c0 5.43-2.32 7.75-7.75 7.75zm-6-20c-4.61 0-6.25 1.64-6.25 6.25v6c0 4.61 1.64 6.25 6.25 6.25h6c4.61 0 6.25-1.64 6.25-6.25v-6c0-4.61-1.64-6.25-6.25-6.25h-6z"/>
 <path d="m15 10.26c-0.19 0-0.38-0.0701-0.53-0.2201l-2.47-2.4699-2.47 2.4699c-0.29 0.29-0.77 0.29-1.06 0-0.29-0.28995-0.29-0.76995 0-1.06l3-3c0.29-0.29 0.77-0.29 1.06 0l3 3c0.29 0.29 0.29 0.77 0 1.06-0.15 0.15-0.34 0.2201-0.53 0.2201z"/>
 <path d="m12 15.26c-0.41 0-0.75-0.34-0.75-0.75v-8c0-0.41 0.34-0.75 0.75-0.75s0.75 0.34 0.75 0.75v8c0 0.42-0.34 0.75-0.75 0.75z"/>
 <path d="m12 18.23c-2.11 0-4.23-0.34-6.24-1.01-0.39-0.13-0.6-0.56-0.47-0.95s0.56001-0.61 0.95001-0.47c3.72 1.24 7.81 1.24 11.53 0 0.39-0.13 0.82 0.08 0.95 0.47s-0.08 0.82-0.47 0.95c-2.02 0.68-4.14 1.01-6.25 1.01z"/>
</svg>
